public/footer/blog.svg

<svg width="32" height="32" viewBox="0 0 32 32" fill="none" xmlns="http://www.w3.org/2000/svg">
<path d="M22.1586 13.9786C21.7693 13.9735 21.4466 14.2859 21.4415 14.6804C21.4363 15.0748 21.7488 15.4129 22.1125 15.418C22.4967 15.418 22.845 15.0799 22.845 14.7008C22.845 14.3167 22.5326 13.9837 22.1586 13.9786Z" fill="#979797"/>
<path d="M10.7648 14.0355C10.3857 14.0406 10.0989 14.3326 10.0938 14.7116C10.0938 15.0856 10.355 15.3673 10.7033 15.3622C11.1234 15.3622 11.4256 15.0804 11.4256 14.6963C11.4256 14.3223 11.1285 14.0252 10.7648 14.0303V14.0355Z" fill="#979797"/>
<path d="M23.9396 8.27246H8.05482C7.07643 8.27246 6.27734 9.06644 6.27734 10.05V19.1423C6.27734 20.1207 7.07131 20.9198 8.05482 20.9198H14.4528L15.9998 23.7269L17.7209 20.9198H23.9447C24.9231 20.9198 25.7222 20.1258 25.7222 19.1423V10.05C25.7222 9.07157 24.9282 8.27246 23.9447 8.27246H23.9396ZM12.6497 15.239C12.5882 15.6488 12.3423 15.9459 12.0145 16.1662C11.5586 16.4735 11.0566 16.5811 10.5187 16.3864C10.3907 16.3403 10.2831 16.2635 10.1653 16.1918C10.0987 16.1508 10.0321 16.1303 10.0321 16.2481C10.0321 16.3198 9.986 16.3455 9.92453 16.3506C9.58133 16.3711 9.23811 16.3352 8.88979 16.3352C8.84881 16.3352 8.82832 16.3198 8.82832 16.2789C8.82832 16.2533 8.82832 16.2328 8.82832 16.2071C8.81807 14.6499 8.81295 13.0978 8.79758 11.5406C8.79758 11.4381 8.81808 11.3972 8.93077 11.3972C9.25349 11.4074 9.57108 11.4074 9.8938 11.3972C10.0116 11.3972 10.0321 11.433 10.027 11.5406C10.027 12.058 10.027 12.5702 10.027 13.0876V13.2464C10.5802 12.7751 11.1693 12.729 11.7789 13.0107C12.2348 13.2208 12.5011 13.6152 12.6189 14.1018C12.7111 14.4758 12.7009 14.8599 12.6446 15.239H12.6497ZM14.7191 16.3711C14.3913 16.3659 14.0686 16.3659 13.7408 16.3711C13.6281 16.3711 13.6025 16.3403 13.6025 16.2328C13.6025 15.1622 13.6025 14.0865 13.6025 13.0159C13.6025 12.8929 13.5768 12.8058 13.4795 12.7239C13.3668 12.6266 13.2695 12.5087 13.1209 12.4626C13.0646 12.4473 13.0595 12.396 13.0543 12.3499C13.0185 11.9965 13.0441 11.643 13.039 11.2947C13.039 11.2384 13.0697 11.2384 13.1107 11.2435C13.7664 11.3306 14.3196 11.5713 14.6321 12.2014C14.7448 12.4319 14.8114 12.6573 14.8062 12.9185C14.7909 13.4308 14.8062 13.9379 14.8062 14.4501H14.837C14.837 15.0495 14.837 15.6488 14.837 16.2481C14.837 16.3455 14.8165 16.3762 14.714 16.3762L14.7191 16.3711ZM19.2577 15.6078C18.8376 16.2225 18.2332 16.5196 17.6031 16.4991C16.5632 16.4838 15.9076 15.8844 15.6822 15.1519C15.508 14.5833 15.6207 14.0352 16.0203 13.5742C16.7067 12.7751 17.8695 12.6829 18.73 13.2412C19.5445 13.774 19.7955 14.8138 19.2525 15.6078H19.2577ZM23.9601 16.6016C23.9447 16.9345 23.9037 17.2624 23.6886 17.5339C23.412 17.8873 23.0739 18.1383 22.6129 18.1742C22.3465 18.1947 22.075 18.1998 21.8035 18.2152C21.7216 18.2152 21.7011 18.1947 21.7011 18.1178C21.7011 17.8105 21.7011 17.5031 21.7011 17.2009C21.7011 17.1087 21.7369 17.0933 21.8138 17.0933C21.9264 17.0985 22.034 17.0933 22.1467 17.0728C22.3772 17.0319 22.5411 16.9089 22.6385 16.704C22.7204 16.535 22.7512 16.3506 22.7665 16.1303C22.408 16.4377 22.0135 16.5043 21.5935 16.4838C20.8917 16.4479 20.2873 15.9152 20.1797 15.2236C20.1029 14.7165 20.108 14.2094 20.3334 13.7381C20.5844 13.2054 21.0351 12.939 21.6037 12.8571C22.0596 12.7905 22.4592 12.9032 22.7973 13.2515C22.8331 13.1644 22.8178 13.0876 22.8126 13.0107C22.8126 12.9288 22.8382 12.9083 22.9151 12.9083C23.2429 12.9083 23.5656 12.9083 23.8935 12.9083C23.9652 12.9083 23.9908 12.9288 23.9908 13.0056C23.9806 14.2043 24.0164 15.4029 23.9601 16.5965V16.6016Z" fill="#979797"/>
<path d="M17.6443 13.9736C17.1782 13.9736 16.8555 14.2707 16.8555 14.7061C16.8555 15.075 17.1935 15.4182 17.5572 15.4182C17.9824 15.4182 18.3 15.0852 18.3051 14.6447C18.3051 14.3168 17.9722 13.9736 17.6494 13.9736H17.6443Z" fill="#979797"/>
</svg>

<svg width="32" height="32" fill="none" xmlns="http://www.w3.org/2000/svg"><path d="M22.159 13.979a.71.71 0 0 0-.717.701c-.006.395.307.733.67.738.385 0 .733-.338.733-.717 0-.384-.312-.717-.686-.722zM10.765 14.036a.671.671 0 0 0-.671.676c0 .374.261.655.61.65.42 0 .722-.282.722-.666a.657.657 0 0 0-.661-.666v.006z" fill="#979797"/><path d="M23.94 8.272H8.055c-.979 0-1.778.794-1.778 1.778v9.092c0 .979.794 1.778 1.778 1.778h6.398L16 23.727l1.72-2.807h6.225c.978 0 1.777-.794 1.777-1.778V10.05c0-.978-.794-1.778-1.777-1.778h-.005zM12.65 15.24c-.062.41-.308.707-.636.927-.455.308-.957.415-1.495.22-.128-.046-.236-.122-.354-.194-.066-.041-.133-.062-.133.056 0 .072-.046.098-.107.103-.344.02-.687-.016-1.035-.016-.041 0-.062-.015-.062-.056v-.072c-.01-1.557-.015-3.11-.03-4.666 0-.103.02-.144.133-.144.322.01.64.01.963 0 .118 0 .138.036.133.144V13.246c.553-.47 1.142-.517 1.752-.235.456.21.722.604.84 1.09.092.375.082.759.026 1.138h.005zm2.07 1.132c-.329-.005-.651-.005-.98 0-.112 0-.138-.03-.138-.138v-3.217c0-.123-.025-.21-.123-.292-.112-.097-.21-.215-.358-.261-.056-.016-.062-.067-.067-.113-.036-.354-.01-.707-.015-1.055 0-.057.03-.057.072-.052.655.088 1.209.328 1.521.958.113.23.18.456.174.717-.015.513 0 1.02 0 1.532h.031v1.798c0 .098-.02.128-.123.128l.005-.005zm4.538-.763c-.42.614-1.025.912-1.655.891-1.04-.015-1.695-.615-1.92-1.347a1.596 1.596 0 0 1 .337-1.578c.687-.799 1.85-.891 2.71-.333.814.533 1.066 1.573.523 2.367h.005zm4.702.994c-.015.332-.056.66-.271.932-.277.353-.615.604-1.076.64-.267.02-.538.026-.81.041-.081 0-.102-.02-.102-.097V17.2c0-.092.036-.108.113-.108.112.006.22 0 .333-.02a.636.636 0 0 0 .492-.369c.081-.169.112-.353.128-.574-.359.308-.753.374-1.174.354a1.517 1.517 0 0 1-1.413-1.26c-.077-.508-.072-1.015.153-1.486.251-.533.702-.799 1.27-.88.457-.068.856.045 1.194.393.036-.087.02-.163.016-.24 0-.082.025-.103.102-.103h.979c.071 0 .097.02.097.098-.01 1.198.025 2.397-.03 3.59v.006z" fill="#979797"/><path d="M17.644 13.974c-.466 0-.788.297-.788.732 0 .369.337.712.701.712.425 0 .743-.333.748-.773 0-.328-.333-.671-.656-.671h-.005z" fill="#979797"/></svg>
